Breeze Round Light/actions/16/mail-signature-unknown.svg

<svg xmlns="http://www.w3.org/2000/svg" viewBox="0 0 16 16">
  <defs id="defs3051">
    <style type="text/css" id="current-color-scheme">
      .ColorScheme-Text {
        color:#232629;
      }
      .ColorScheme-NeutralText {
        color:#f67400;
      }
      </style>
  </defs>
  <path style="fill:currentColor;fill-opacity:1;stroke:none" 
     d="m1 2v12h7v-1h-5.344l3.986-4.65 1.357 1.357c-.013-.024 6-6 6-6v4.293h1v-6zm1.707 1h10.586l-5.293 5.293zm-.707.707l3.934 3.934-3.934 4.59z"
     class="ColorScheme-Text"
     />
  <path d="m13 8l-4 4v2h2l4-4zm-.311 1.689l.592.592-1.688 1.688v.016l-1.281 1.297-.594-.594z"   style="fill:currentColor;fill-opacity:1;stroke:none" 
     class="ColorScheme-NeutralText"
   />
</svg>

<svg xmlns="http://www.w3.org/2000/svg" viewBox="0 0 16 16">
  <defs id="defs3051">
    <style type="text/css" id="current-color-scheme">.ColorScheme-Text {color:#fcfcfc;}.ColorScheme-NeutralText {color:#f67400;}</style>
  </defs>
  <path style="fill:currentColor;fill-opacity:1;stroke:none" 
     d="m 1,4 c 0,2 0,6 0,8 0,2 2,2 2,2 H 8 V 13 H 2.656 L 6.642,8.35 7.999,9.707 c -0.013,-0.024 6,-6 6,-6 V 8 h 1 C 14.999,8 15,6 15,4 15,2 13,2 13,2 H 3 C 3,2 1,2 1,4 Z M 2.707,3 H 13.293 L 8,8.293 Z M 2,3.707 5.934,7.641 2,12.231 Z"
     class="ColorScheme-Text"
     />
  <path d="m13 8l-4 4v2h2l4-4zm-.311 1.689l.592.592-1.688 1.688v.016l-1.281 1.297-.594-.594z"   style="fill:currentColor;fill-opacity:1;stroke:none" 
     class="ColorScheme-NeutralText"
   />
</svg>
